src/images/livingroom.svg

<svg width="113" height="72" viewBox="0 0 113 72" fill="none" xmlns="http://www.w3.org/2000/svg">
<g clip-path="url(#clip0)">
<path d="M109.5 18.5C109.4 18.1 109.1 17.7 108.6 17.7H100.2C99.8 17.7 99.4 18 99.3 18.5L96.2 40.5999C96.2 40.8999 96.2 41.0999 96.4 41.2999C96.6 41.5 96.8 41.5999 97.1 41.5999H103.4V64.3C100 64.7 97.4 67.5999 97.4 71.0999C97.4 71.5999 97.8 72 98.3 72H110.3C110.8 72 111.2 71.5999 111.2 71.0999C111.2 71 111.2 71 111.2 70.9C111.1 67.5 108.5 64.7 105.2 64.3V41.5999H106.9V48.2C106.9 48.7 107.3 49.0999 107.8 49.0999C108.3 49.0999 108.7 48.7 108.7 48.2V41.5999H111.5C111.8 41.5999 112 41.5 112.2 41.2999C112.4 41.0999 112.4 40.7999 112.4 40.5999L109.5 18.5ZM109.3 70.1999H99.3C99.7 67.7999 101.8 66 104.3 66C106.8 66 108.9 67.8999 109.3 70.1999ZM98.2 39.7999L101.1 19.5H107.9L110.6 39.7999H98.2Z" fill="#3B4956"/>
<path d="M92.5 58.7999V49.4C92.5 47.1 91 45.1999 88.9 44.5999C88.9 44.5999 88.9 44.6 88.9 44.5C87.9 40.2 84.1 37.2 79.7 37.2H13.1C8.7 37.2 4.8 40.2999 3.9 44.5999C1.7 45.1999 0 47.1 0 49.5V58.7999V58.9V67.8C0 68.3 0.4 68.6999 0.9 68.6999H2V70.5999C2 71.0999 2.4 71.5 2.9 71.5C3.4 71.5 3.8 71.0999 3.8 70.5999V68.6999H88.4V70.5999C88.4 71.0999 88.8 71.5 89.3 71.5C89.8 71.5 90.2 71.0999 90.2 70.5999V68.6999H91.6C92.1 68.6999 92.5 68.3 92.5 67.8V59C92.5 58.9 92.5 58.9 92.5 58.7999ZM60 58.0999V55.5999H82.4V58.0999H60ZM10.1 55.5999H31V58.0999H10.1V55.5999ZM32.8 55.5999H58.3V58.0999H32.8V55.5999ZM32.8 53.7999V39H58.3V53.7999H32.8ZM90.7 49.4V57.9H84.2V49.4C84.2 47.6 85.6 46.2 87.4 46.2C89.3 46.2 90.7 47.6 90.7 49.4ZM87 44.4C84.4 44.6 82.4 46.8 82.4 49.4V53.7999H60V39H79.7C83.1 39 86 41.2 87 44.4ZM13.1 39H31V53.7999H10.1V49.5C10.1 47 8.2 44.9 5.8 44.5C6.7 41.4 9.7 39 13.1 39ZM1.8 49.5C1.8 47.7 3.2 46.2999 5 46.2999C6.8 46.2999 8.2 47.7 8.2 49.5V58H1.8V49.5ZM90.7 67H1.8V59.9H90.7V67Z" fill="#3B4956"/>
<path d="M58.9001 9.3H56.0001L46.7001 2.1C47.0001 1.9 47.2001 1.6 47.2001 1.2C47.2001 0.6 46.7001 0 46.0001 0C45.3001 0 44.8001 0.5 44.8001 1.2C44.8001 1.6 45.0001 1.9 45.3001 2.1L36.6001 9.3H33.5001C33.0001 9.3 32.6001 9.7 32.6001 10.2V27.7C32.6001 28.2 33.0001 28.6 33.5001 28.6H58.9001C59.4001 28.6 59.8001 28.2 59.8001 27.7V10.2C59.8001 9.7 59.4001 9.3 58.9001 9.3ZM46.1001 3.8L53.1001 9.3H39.5001L46.1001 3.8ZM58.0001 26.8H34.5001V11.1H58.0001V26.8Z" fill="#3B4956"/>
<path d="M37.3001 25.3001H55.2001C55.7001 25.3001 56.1001 24.9001 56.1001 24.4001V13.5001C56.1001 13.0001 55.7001 12.6001 55.2001 12.6001H37.3001C36.8001 12.6001 36.4001 13.0001 36.4001 13.5001V24.4001C36.4001 24.9001 36.8001 25.3001 37.3001 25.3001ZM38.2001 14.4001H54.3001V23.5001H38.2001V14.4001Z" fill="#3B4956"/>
</g>
<defs>
<clipPath id="clip0">
<rect width="112.5" height="72" fill="white"/>
</clipPath>
</defs>
</svg>

<?xml version="1.0" encoding="utf-8"?>
<!-- Generator: Adobe Illustrator 23.0.1, SVG Export Plug-In . SVG Version: 6.00 Build 0)  -->
<svg version="1.1" id="Layer_1" xmlns="http://www.w3.org/2000/svg" xmlns:xlink="http://www.w3.org/1999/xlink" x="0px" y="0px"
	 viewBox="0 0 113 72" style="enable-background:new 0 0 113 72;" xml:space="preserve">
<g id="poster" class="o-livingroom-poster">
	<path d="M58.9,12.3H56l-9.3-7.2c0.3-0.2,0.5-0.5,0.5-0.9C47.2,3.6,46.7,3,46,3s-1.2,0.5-1.2,1.2c0,0.4,0.2,0.7,0.5,0.9l-8.7,7.2
		h-3.1c-0.5,0-0.9,0.4-0.9,0.9v17.5c0,0.5,0.4,0.9,0.9,0.9h25.4c0.5,0,0.9-0.4,0.9-0.9V13.2C59.8,12.7,59.4,12.3,58.9,12.3z
		 M46.1,6.8l7,5.5H39.5L46.1,6.8z M58,29.8H34.5V14.1H58V29.8z"/>
	<path d="M37.3,28.3h17.9c0.5,0,0.9-0.4,0.9-0.9V16.5c0-0.5-0.4-0.9-0.9-0.9H37.3c-0.5,0-0.9,0.4-0.9,0.9v10.9
		C36.4,27.9,36.8,28.3,37.3,28.3z M38.2,17.4h16.1v9.1H38.2V17.4z"/>
</g>
<g>
	<g>
		<path d="M109.5,18.5c-0.1-0.4-0.4-0.8-0.9-0.8h-8.4c-0.4,0-0.8,0.3-0.9,0.8l-3.1,22.1c0,0.3,0,0.5,0.2,0.7s0.4,0.3,0.7,0.3h6.3
			v22.7c-3.4,0.4-6,3.3-6,6.8c0,0.5,0.4,0.9,0.9,0.9h12c0.5,0,0.9-0.4,0.9-0.9c0-0.1,0-0.1,0-0.2c-0.1-3.4-2.7-6.2-6-6.6V41.6h1.7
			v6.6c0,0.5,0.4,0.9,0.9,0.9s0.9-0.4,0.9-0.9v-6.6h2.8c0.3,0,0.5-0.1,0.7-0.3s0.2-0.5,0.2-0.7L109.5,18.5z M109.3,70.2h-10
			c0.4-2.4,2.5-4.2,5-4.2S108.9,67.9,109.3,70.2z M98.2,39.8l2.9-20.3h6.8l2.7,20.3H98.2z"/>
		<path d="M92.5,58.8v-9.4c0-2.3-1.5-4.2-3.6-4.8c0,0,0,0,0-0.1c-1-4.3-4.8-7.3-9.2-7.3H13.1c-4.4,0-8.3,3.1-9.2,7.4
			C1.7,45.2,0,47.1,0,49.5v9.3v0.1v8.9c0,0.5,0.4,0.9,0.9,0.9H2v1.9c0,0.5,0.4,0.9,0.9,0.9s0.9-0.4,0.9-0.9v-1.9h84.6v1.9
			c0,0.5,0.4,0.9,0.9,0.9s0.9-0.4,0.9-0.9v-1.9h1.4c0.5,0,0.9-0.4,0.9-0.9V59C92.5,58.9,92.5,58.9,92.5,58.8z M60,58.1v-2.5h22.4
			v2.5H60z M10.1,55.6H31v2.5H10.1V55.6z M32.8,55.6h25.5v2.5H32.8V55.6z M32.8,53.8V39h25.5v14.8H32.8z M90.7,49.4v8.5h-6.5v-8.5
			c0-1.8,1.4-3.2,3.2-3.2C89.3,46.2,90.7,47.6,90.7,49.4z M87,44.4c-2.6,0.2-4.6,2.4-4.6,5v4.4H60V39h19.7C83.1,39,86,41.2,87,44.4z
			 M13.1,39H31v14.8H10.1v-4.3c0-2.5-1.9-4.6-4.3-5C6.7,41.4,9.7,39,13.1,39z M1.8,49.5c0-1.8,1.4-3.2,3.2-3.2s3.2,1.4,3.2,3.2V58
			H1.8V49.5z M90.7,67H1.8v-7.1h88.9C90.7,59.9,90.7,67,90.7,67z"/>
	</g>
</g>
</svg>
